X:1
T:The Lord Is Coming By and By
T:The Lord Is Coming By and By
T:Elijah Albright Hoffman
T:Elijah Albright Hoffman, 1891
T:Public Domain Courtesy of the Cyber Hymnal™
T:Public Domain Courtesy of the Cyber Hymnal™
C:Elijah Albright Hoffman
Z:Public Domain
Z:Courtesy of the Cyber Hymnal™
%%score ( 1 2 ) ( 3 4 )
L:1/8
M:4/4
K:G
V:1 treble 
V:2 treble 
V:3 bass 
V:4 bass 
V:1
 D2 | [DG]2 [DG]2 [DG]2 (G[FA]) | [GB]2 [GB]2 [GB]2 [DG]2 | [EA] [EA]3 [DG]2 [DF]2 | [DG]6 D2 | %5
w: 1.~The|Lord is com- ing *|by and by, Be|read- y when He|comes; He|
w: 2.~He|soon will come to *|earth a- gain, Be|read- y when He|comes; Be-|
w: 3.~Be-|hold! He comes to *|one and all, Be|read- y when He|comes; He|
 [DG]2 [DG]2 [DG]2 (G[FA]) | [GB]2 [GB]2 [GB]2 [DG]2 | [EA] [EA]3 [DG]2 [DF]2 | [DG]6 [GB]2 | %9
w: comes from His fair *|home on high, Be|read- y when He|comes; He|
w: gin His un- i- *|vers- al reign, Be|read- y when He|comes; With|
w: quick- ly comes with *|trump- et call, Be|read- y when He|comes; To|
 [Gd]2 [Dd]2 [Gd]2 [GB]2 | [Ac]2 [Fc]2 [Ac]2 [FA]2 | [GB]2 ([GB][Ac]) [Bd]2 [GB]2 | %12
w: is the Lord our|Right- eous- ness, And|comes His * chos- en|
w: hal- le- lu- jahs|heav’n will ring, When|Je- sus * does re-|
w: judg- ment called at|His com- mand, Drawn|thith- er * by His|
 [FA]2 [FA]2 [FA]2 D2 | [DG]2 [DG]2 [DG]2 (G[FA]) | [GB]2 [GB]2 [GB]2 [DG]2 | %15
w: ones to bless, And|at His Fa- ther’s *|throne con- fess; Be|
w: demp- tion bring; O|trim your lamps to *|meet your King! Be|
w: might- y hand, Be-|fore His throne we *|all must stand; Be|
 [EA] [EA]3 [DG]2 [DF]2 | [DG]6 ||"^Refrain" (3DEF x | G<G [DG]>[DG] [DG]2 [GB]2 | [FA]6 (3DFG x | %20
w: read- y when He|comes.|Will you be|read- y when the Bride- groom|comes? Will you be|
w: read- y when He|comes.||||
w: read- y when He|comes.||||
 A<A [FA]>[FA] [FA]2 [Ac]2 | [GB]6 [GB][Gc] | [Gd][Gd] [Gd]>[Gd] [GB]2 [Gd]>[=Fd] | %23
w: read- y when the Bride- groom|comes? Will your|lamps be trimmed and bright, Be it|
w: |||
w: |||
 [Ed][Ec] [Ec]>[Ec] !fermata![EG]2 (3G[GA][GB] | [EA]<[EA] [EA]>[EA] [DG]2 [DF]2 | [DG]6 |] %26
w: morn- ing, noon or night? Will you be|read- y when the Bride- groom|comes?|
w: |||
w: |||
V:2
 D2 | x6 G x | x8 | x8 | x6 D2 | x6 G x | x8 | x8 | x8 | x8 | x8 | x8 | x6 D2 | x6 G x | x8 | x8 | %16
 x6 || DEF | G<G x6 | x6 DFG | A<A x6 | x8 | x8 | x6 G x | x8 | x6 |] %26
V:3
 [G,B,]2 | [G,B,]2 [G,B,]2 [G,B,]2 D2 | [G,D]2 [G,D]2 [G,D]2 [G,B,]2 | %3
w: ~|~ ~ ~ ~|~ ~ ~ ~|
 [C,C] [C,C]3 [D,B,]2 [D,A,]2 | [G,B,]6 [G,B,]2 | [G,B,]2 [G,B,]2 [G,B,]2 D2 | %6
w: ~ ~ ~ ~|~ ~|~ ~ ~ ~|
 [G,D]2 [G,D]2 [G,D]2 [G,B,]2 | [C,C] [C,C]3 [D,B,]2 [D,A,]2 | [G,B,]6 [G,D]2 | %9
w: ~ ~ ~ ~|~ ~ ~ ~|~ ~|
 [G,B,]2 [G,B,]2 [G,B,]2 [G,D]2 | [D,D]2 [D,D]2 [D,D]2 [D,D]2 | [G,D]2 [G,D]2 [G,D]2 [G,D]2 | %12
w: ~ ~ ~ ~|~ ~ ~ ~|~ ~ ~ ~|
 [D,D]2 [D,D]2 [D,D]2 [F,C]2 | [G,B,]2 [G,B,]2 [G,B,]2 D2 | [G,D]2 [G,D]2 [G,D]2 [G,B,]2 | %15
w: ~ ~ ~ ~|~ ~ ~ ~|~ ~ ~ ~|
 [C,C] [C,C]3 [D,B,]2 [D,A,]2 | [G,B,]6 || D,E,F, | G,<G, [G,B,]>[G,B,] [G,B,]2 [G,D]2 | %19
w: ~ ~ ~ ~|~|~ ~ ~|~ ~ ~ ~ ~ ~|
 [D,D]2 [D,D]>[D,D] [D,D]2 (3D,F,G, x | A,<A, [D,D]>[D,D] [D,D]2 [D,D]2 | %21
w: ~ When He comes? ~ ~ ~|~ ~ ~ ~ ~ ~|
 [G,D]2 [G,D]>[G,D] [G,D]2 G,[G,A,] | [G,B,][G,B,] [G,B,]>[G,B,] [G,D]2 [G,B,]>[G,B,] | %23
w: ~ When He comes? * *||
 [C,G,][C,G,] [C,G,]>[C,G,] !fermata![C,G,]2 (3[C,D][C,D][C,D] | %24
w: |
 [C,C]<[C,C] [C,C]>[C,C] [D,B,]2 [D,A,]2 | [G,B,]6 |] %26
w: ||
V:4
 x2 | x6 (B,,C,) | x8 | x8 | x8 | x6 (B,,C,) | x8 | x8 | x8 | x8 | x8 | x8 | x8 | x6 (B,,D,) | x8 | %15
 x8 | x6 || (3D,E,F, x | G,<G, x6 | x6 D,F,G, | A,<A, x6 | x6 G, x | x8 | x8 | x8 | x6 |] %26

